src/svg/monochrome/32/verification-in-progress.svg

<svg width="32" height="32" viewBox="0 0 32 32" fill="none" xmlns="http://www.w3.org/2000/svg">
<g id="verification-in-progress">
<path id="Union" d="M16.3633 1.9375C23.9641 2.13018 30.0663 8.35277 30.0664 16C30.0663 23.7687 23.7687 30.0674 16 30.0674L15.6494 30.0625C14.8332 30.0425 14.0331 29.9526 13.2559 29.7988C12.7143 29.6915 12.3617 29.1656 12.4688 28.624C12.5759 28.0823 13.1028 27.7297 13.6445 27.8369C14.2152 27.9498 14.801 28.0225 15.3984 28.0518L16 28.0674C22.6642 28.0674 28.0663 22.6641 28.0664 16C28.0663 9.44004 22.8317 4.10273 16.3115 3.9375L16 3.93359L15.3984 3.94824C14.8009 3.9775 14.2153 4.0502 13.6445 4.16309L13.543 4.17773C13.0384 4.2254 12.5694 3.88377 12.4688 3.37598C12.3619 2.83441 12.7143 2.3084 13.2559 2.20117L13.5908 2.13965C14.3742 2.00437 15.1793 1.93361 16 1.93359L16.3633 1.9375ZM4.57812 22.4297C5.03705 22.1225 5.65858 22.2452 5.96582 22.7041C6.73689 23.8557 7.7008 24.8681 8.81152 25.6934L9.29688 26.0352L9.37891 26.0967C9.76889 26.4199 9.85917 26.9928 9.57129 27.4229C9.28323 27.8527 8.71883 27.9877 8.27148 27.75L8.18359 27.6973L7.89844 27.501C6.48627 26.5045 5.26613 25.2539 4.30371 23.8164C3.99655 23.3575 4.11936 22.737 4.57812 22.4297ZM20.2471 11.3418C20.6106 10.9262 21.2425 10.8837 21.6582 11.2471C22.0738 11.6106 22.1163 12.2425 21.7529 12.6582L14.7549 20.6582C14.565 20.8752 14.2903 21 14.002 21C13.7136 21 13.4389 20.8753 13.249 20.6582L10.2471 17.2266L10.1836 17.1465C9.8903 16.7333 9.95218 16.1563 10.3418 15.8154C10.7316 15.4747 11.3112 15.4909 11.6816 15.8369L11.7529 15.9102L14.001 18.4805L20.2471 11.3418ZM2.22656 13.1572C2.3745 12.6725 2.8681 12.3685 3.37598 12.4688C3.9176 12.5761 4.27025 13.1028 4.16309 13.6445L4.06348 14.2197C3.97771 14.8001 3.93361 15.3947 3.93359 16C3.93361 16.6052 3.97774 17.2 4.06348 17.7803L4.16309 18.3564L4.17773 18.458C4.225 18.9623 3.88358 19.4307 3.37598 19.5312C2.86832 19.6315 2.37478 19.3281 2.22656 18.8438L2.20117 18.7441L2.13965 18.4102C2.0043 17.6266 1.93361 16.8209 1.93359 16C1.93361 15.062 2.02547 14.1441 2.20117 13.2559L2.22656 13.1572ZM8.18359 4.30371C8.64252 3.99651 9.26405 4.11921 9.57129 4.57812C9.87824 5.03699 9.75561 5.65862 9.29688 5.96582C7.98056 6.84707 6.84707 7.98056 5.96582 9.29688C5.65862 9.7556 5.03698 9.87824 4.57812 9.57129C4.11922 9.26406 3.99652 8.64252 4.30371 8.18359C5.33031 6.65027 6.65027 5.33031 8.18359 4.30371Z" fill="#3D3C3C"/>
</g>
</svg>

<svg xmlns="http://www.w3.org/2000/svg" width="32" height="32" fill="currentColor" viewBox="0 0 32 32">
  <path d="M16.363 1.938C23.964 2.13 30.066 8.352 30.066 16c0 7.769-6.297 14.067-14.066 14.067l-.35-.005c-.817-.02-1.617-.11-2.394-.263a1 1 0 1 1 .389-1.962c.57.113 1.156.186 1.753.215l.602.015c6.664 0 12.066-5.403 12.066-12.067 0-6.56-5.234-11.897-11.755-12.063L16 3.934l-.602.014c-.597.03-1.183.102-1.753.215l-.102.015a1 1 0 0 1-.287-1.977l.335-.061A14.153 14.153 0 0 1 16 1.934l.363.004ZM4.578 22.43a1 1 0 0 1 1.388.274 12.144 12.144 0 0 0 2.846 2.99l.485.341.082.062A1.001 1.001 0 0 1 8.27 27.75l-.087-.053-.286-.196a14.141 14.141 0 0 1-3.594-3.685 1 1 0 0 1 .274-1.386Zm15.67-11.088a1 1 0 0 1 1.505 1.316l-6.998 8a1.001 1.001 0 0 1-1.506 0l-3.002-3.431-.063-.08a1.001 1.001 0 0 1 1.498-1.31l.07.073 2.249 2.57 6.246-7.138ZM2.226 13.157a1 1 0 0 1 1.936.488l-.1.575a12.177 12.177 0 0 0 0 3.56l.1.576.015.102a1 1 0 0 1-1.951.386l-.026-.1-.061-.334a14.158 14.158 0 0 1 .061-5.154l.026-.099Zm5.957-8.853a1 1 0 0 1 1.113 1.662 12.138 12.138 0 0 0-3.331 3.33 1 1 0 0 1-1.662-1.112 14.139 14.139 0 0 1 3.88-3.88Z"/>
</svg>
